X:29     %Music
T:Epping Forest     %Tune name
M:6/8     %Meter
L:1/8     %
K:G
|:"C"e2 e "G"d3/c/B | "Am"c3/B/A "E"^G2 f | "C"g3/f/e "D"d2 c | ("G"B3B2) e | "Em"g3/f/e "Bm"d2 B |
"Am"c3/B/A "E"^G2 E | "D"F3/^G/A "E"A2 G |1"Am"A3-A3 :|2"Am"A3-A2 ||  c/d/ |
"C"e3 "G"d3 | "Am"c3-c2 e/f/ | "Em"g3 "B"f3 | "E"e3-e2 c/d/ | "C"e3 "G"d3 |
"Am"c3-c2 e/f/ | "Em"g3 "B"f3 | "E"e3-e2 e | "C"e3/f/e "G"d3/c/B | "Am"c3/B/A "E"^G2 E |
"D"F3/G/A "E"A2 ^G | ("Am"A3A2) e | "C"e3/f/e "G"d3/c/B | "Am"c3/B/A "E"^G2 E | "D"F3/G/A "E"A2 ^G |"Am"A6 |]
